X: 115
T: A Breath Of Fresh Air
R: hornpipe
M: 4/4
K: Dmajor
A|defd cdec|BcdB AFGE|D2FA ~f3z|ge~e2 gece|
defd cdec|BcdB AFGE|DFA/c/d gece|(3dcd (3edc d2z:|:B|
cdef gece|dAFA dAFA|cdef gece|defg ~a3z|
cdef gece|dAFA dAF2|dafd cgec|(3dcd (3edc d2z:|:A|
DFAd ~f3z|dcde fdA2|DFAd f2ga|ge~e2 gece|
DFAd ~f3z|dcde fd~A2|Adfd Bgec|(3dcd (3edc d2z:|

